img/wifi-low.svg

<?xml version="1.0" encoding="UTF-8" standalone="no"?>
<!-- Uploaded to: SVG Repo, www.svgrepo.com, Generator: SVG Repo Mixer Tools -->

<svg
   width="800px"
   height="800px"
   viewBox="0 0 24 24"
   fill="none"
   version="1.1"
   id="svg4"
   sodipodi:docname="wifi-low.svg"
   inkscape:version="1.2.1 (9c6d41e410, 2022-07-14)"
   xmlns:inkscape="http://www.inkscape.org/namespaces/inkscape"
   xmlns:sodipodi="http://sodipodi.sourceforge.net/DTD/sodipodi-0.dtd"
   xmlns="http://www.w3.org/2000/svg"
   xmlns:svg="http://www.w3.org/2000/svg">
  <defs
     id="defs8" />
  <sodipodi:namedview
     id="namedview6"
     pagecolor="#ffffff"
     bordercolor="#000000"
     borderopacity="0.25"
     inkscape:showpageshadow="2"
     inkscape:pageopacity="0.0"
     inkscape:pagecheckerboard="0"
     inkscape:deskcolor="#d1d1d1"
     showgrid="false"
     inkscape:zoom="0.51625"
     inkscape:cx="355.44794"
     inkscape:cy="413.55932"
     inkscape:window-width="1920"
     inkscape:window-height="1013"
     inkscape:window-x="-9"
     inkscape:window-y="-9"
     inkscape:window-maximized="1"
     inkscape:current-layer="System / Wifi_High" />
  <g
     id="System / Wifi_High">
    <path
       style="stroke:#ffffff;stroke-opacity:1;stroke-width:2.01;stroke-dasharray:none;stroke-linecap:round"
       d="m 12,19.0001 c -0.5523,0 -1,-0.4477 -1,-1 0,-0.5523 0.4477,-1 1,-1 0.5523,0 1,0.4477 1,1 0,0.5523 -0.4477,1 -1,1 z"
       id="path895" />
    <path
       style="stroke:#ffffff;stroke-opacity:0.29584351;stroke-width:2.01;stroke-dasharray:none;stroke-linecap:round"
       d="M 3.22363,8.81635 C 4.34165,7.61742 5.69347,6.66028 7.19569,6.00398 8.69791,5.34768 10.3179,5.0058 11.9572,5.00007 c 1.6394,-0.00572 3.2636,0.32465 4.7704,0.97045 1.5068,0.6458 2.8655,1.59406 3.9919,2.78516"
       id="path893" />
    <path
       style="stroke:#ffffff;stroke-opacity:0.30000001;stroke-width:2.01;stroke-dasharray:none;stroke-linecap:round"
       d="M 6.14941,11.5439 C 6.89476,10.7446 7.79597,10.1066 8.79745,9.66902 9.79893,9.23148 10.8793,9.00389 11.9721,9.00007 c 1.0929,-0.00381 2.1745,0.21644 3.179,0.64697 1.0045,0.43056 1.9106,1.06236 2.6616,1.85646"
       id="path891" />
    <path
       style="stroke:#ffffff;stroke-opacity:1;stroke-width:2.01;stroke-dasharray:none;stroke-linecap:round"
       d="m 8.34277,14.5899 c 0.46584,-0.4996 1.0291,-0.8984 1.65503,-1.1719 0.6259,-0.2734 1.3017,-0.4155 1.9848,-0.4179 0.683,-0.0024 1.3593,0.1352 1.9871,0.4043 0.6278,0.2691 1.194,0.6639 1.6633,1.1602"
       id="Vector" />
  </g>
</svg>

<?xml version="1.0" encoding="UTF-8" standalone="no"?>
<!-- Uploaded to: SVG Repo, www.svgrepo.com, Generator: SVG Repo Mixer Tools -->

<svg
   width="800px"
   height="800px"
   viewBox="0 0 24 24"
   fill="none"
   version="1.1"
   id="svg4"
   sodipodi:docname="wifi-low.svg"
   inkscape:version="1.2.1 (9c6d41e410, 2022-07-14)"
   xmlns:inkscape="http://www.inkscape.org/namespaces/inkscape"
   xmlns:sodipodi="http://sodipodi.sourceforge.net/DTD/sodipodi-0.dtd"
   xmlns="http://www.w3.org/2000/svg"
   xmlns:svg="http://www.w3.org/2000/svg">
  <defs
     id="defs8" />
  <sodipodi:namedview
     id="namedview6"
     pagecolor="#ffffff"
     bordercolor="#000000"
     borderopacity="0.25"
     inkscape:showpageshadow="2"
     inkscape:pageopacity="0.0"
     inkscape:pagecheckerboard="0"
     inkscape:deskcolor="#d1d1d1"
     showgrid="false"
     inkscape:zoom="0.73008775"
     inkscape:cx="215.04264"
     inkscape:cy="406.11557"
     inkscape:window-width="1920"
     inkscape:window-height="1013"
     inkscape:window-x="-9"
     inkscape:window-y="-9"
     inkscape:window-maximized="1"
     inkscape:current-layer="System / Wifi_Low" />
  <g
     id="System / Wifi_Low">
    <path
       id="Vector"
       d="M8.34277 14.5898C8.80861 14.0903 9.37187 13.6915 9.9978 13.418C10.6237 13.1445 11.2995 13.0024 11.9826 13C12.6656 12.9976 13.3418 13.1353 13.9697 13.4044C14.5975 13.6735 15.1637 14.0683 15.633 14.5645M12 19C11.4477 19 11 18.5523 11 18C11 17.4477 11.4477 17 12 17C12.5523 17 13 17.4477 13 18C13 18.5523 12.5523 19 12 19Z"
       stroke="#000000"
       stroke-width="2"
       stroke-linecap="round"
       stroke-linejoin="round"
       style="fill:none;stroke:#ffffff;stroke-opacity:1" />
  </g>
</svg>
